X:1
T:Dal sasso del mio core
T:André Vierendeels
T:Source :  Melody from "Corona di Sacre canzoni o Laude spirituali" (Tenor voice) Firenze---Eredi Francesco Orofri---1689. Editor : André Vierendeels (04/12/17). Notes : Original clef : C4, other voices supplied editorially Music compiled by Matteo Cofrrati 
T:Dal sasso del mio core
T:©
T:©
C:André Vierendeels
Z:©
%%score [ 1 2 3 ]
L:1/8
Q:1/4=120
M:4/4
K:F
V:1 treble nm="Soprano" snm="S"
V:2 treble nm="Alto" snm="A"
V:3 treble-8 nm="Tenor" snm="T"
V:1
"^1)""^2)" c4 A2 A2 | G2 F2 c4 | A2 G2 B2 Ac | A2 AA c3 B | d3 c =B4 :: d2 BG B2 F2 | F2 E2 G2 AA | %7
w: Da sas- so|del mio co-|re, ca- va dol- ce|_ Gie- su _ _||e viv' ac- qua di|pian- * to, ond' io|
w: Me- ri- to|oi- me, piu|pe- ne, che non son|del Mar l'on- d'e sue-|a- re- ne,|per- ch'i miei gra- vi'er-|ro- * i son de|
 A2 Ac cB AG | d2 c2 c4 | A8 :| %10
w: la- vi quest' al- * m'im- *|mon- da tan-|to.|
w: l'on- d'e d'a- re- * ne'as- *|sai mag- gio-|ri,|
V:2
"^1)""^3)" E4 E2 E2 | D2 D2 E4 | C2 D2 D2 CC | F2 FF A3 D | G2 ^F2 G4 :: F2 FD G2 D2 | %6
w: Da sas- so|del mio co-|re, ca- va dol- ce|Gie- su fo- co d'a-|mo- * re,|e viv' ac- qua di|
w: Quin- ci'al Mar|di pie- ta-|de, por- te- ro Mar|di la- cri- me ssi|gra- * te,|che ne- gli'a- bis- si|
 D2 C2 D2 CC | C2 FA AG FG | B2 A2 F2 E2 | F8 :| %10
w: pian- * to ond' io|la- vi quest' al- * m'im- *|mon- da tan- *|to.|
w: suo- * i re- sti-|no'es- tin- t'i mie- * i _|gran fal- li po-|i.|
V:3
"^1)""^4)" A4 A c2 d | B3 A A4 | A2 c2 G2 FE | DCDE F3 G | A4 G4 :: B2 BB G2 B2 | B A3 G2 FF | %7
w: Da sas- * so|del mio co-|re, ca- va dol- ce|Gie- * su fo- co d'a-|mo- re,|e viv' ac- qua di|pian- * to, ond' io|
w: A que- sti pie|m'at- ter- ro-|in Cro- ce'af- fis- si|da- * spi- e- ta- te|fer- ro,|per as- pet- tar- mi|so- * lo,'a- pian- to'a-|
 F2 FF F2 F2 | G2 A2 G4 | F8 :| %10
w: la- vi quest' al- ma'im-|mon- da tan-|to.|
w: ma- te, e ad a-|ma- ro duo-|lo.|

